static/images/mobile/copyright/wikipedia-wordmark-hi.svg

<?xml version="1.0" encoding="UTF-8"?>
<svg width="120px" height="28px" viewBox="0 0 120 28" version="1.1" xmlns="http://www.w3.org/2000/svg" xmlns:xlink="http://www.w3.org/1999/xlink">
    <title>wikipedia-wordmark-hi</title>
    <g id="Page-1" stroke="none" stroke-width="1" fill="none" fill-rule="evenodd">
        <path d="M118.243402,8.70605585 L120,10.4754714 L115.614912,10.4754714 L115.614912,27.0926289 L113.512128,24.9641989 L113.512128,10.4754714 L109.011641,10.4754714 L109.011641,27.0926289 L106.921673,24.9770273 L106.921673,20.3226788 C105.887365,21.5108489 104.562434,22.1049227 102.946891,22.1049227 C100.955222,22.1049227 99.4336831,21.3441588 98.3822964,19.822631 C97.6984577,18.8310801 97.356544,17.7027569 97.356544,16.4376503 C98.1258527,16.4376616 98.8139638,16.2410536 99.4208659,15.8478488 C100.096149,15.4119092 100.493626,14.8349249 100.613309,14.1168846 C100.6646,13.9459446 100.690189,13.6510383 100.690189,13.2321769 C100.690189,11.9841935 100.220047,11.0652954 99.2797875,10.4754714 L92.1893329,10.4754714 L92.1893329,16.0658187 L86.1886914,16.0401168 C84.5731286,16.0310986 83.7653516,16.416232 83.7653561,17.1940854 C83.7653516,17.655682 83.8935701,18.0488867 84.1500127,18.3736996 C84.4235403,18.7241693 84.7868272,18.8994042 85.2398721,18.8993929 C85.5988787,18.8994042 86.1331236,18.8438183 86.8426078,18.732714 C87.5520762,18.6130539 88.086321,18.5532181 88.4453434,18.5532068 C89.6762327,18.5532181 90.7319008,19.0746391 91.6123474,20.1174697 C92.4585791,21.1090432 92.8817006,22.2330939 92.881714,23.4896333 C92.8817006,24.4897402 92.3816471,25.3573472 91.3815538,26.0924657 C90.4669145,26.7677596 89.4881785,27.105401 88.4453434,27.105401 C86.5049574,27.105401 84.6671556,26.2249656 82.9319337,24.4640947 C81.7608654,23.2759358 80.5427875,21.5535276 79.2776978,19.29687 L80.0598327,18.8481133 C80.8804312,20.4038314 81.8762624,21.7415796 83.0473305,22.861358 C84.5261156,24.2803151 85.9707125,24.989788 87.3811272,24.989788 C88.3128412,24.989788 89.1548106,24.6863369 89.9070377,24.0794347 C90.719078,23.4383423 91.1251044,22.6647613 91.1251167,21.7586804 C91.1251044,21.3825763 90.9968859,21.0620245 90.7404601,20.797036 C90.4840108,20.5320588 90.1720115,20.399559 89.8044625,20.399559 C89.4197957,20.399559 88.8684547,20.5491483 88.1504392,20.8483158 C87.440954,21.138961 86.898161,21.2842667 86.5220604,21.2842667 C85.5475911,21.2842667 84.6885254,20.7799466 83.9448622,19.7712836 C83.714064,19.4721162 83.2011889,18.5532181 82.406237,17.0145782 C82.0899598,16.4076873 81.9318235,15.9161843 81.9318268,15.5400577 C81.9318235,14.8135066 82.3207536,14.3305482 83.0986182,14.091194 C83.5345579,13.954433 84.2226644,13.8860525 85.1629413,13.8860412 L90.2788716,13.8860412 L90.2788716,10.4754151 L77.059513,10.4754714 L77.059513,27.0926289 L74.9310807,24.9770273 L74.9310807,10.4754714 L70.4434223,10.4754714 L70.4434223,27.0669948 L68.3149889,24.9385534 L68.3149889,10.4754714 L63.8786182,10.4754714 L63.8786182,27.0926289 L61.673255,24.8744453 L61.673255,19.5790156 C60.9723156,19.9978659 59.9294703,20.207291 58.5447158,20.2072797 C57.185591,20.0705187 56.0401705,19.4550717 55.1084508,18.3609276 C54.1852736,17.2924515 53.7236862,16.0701023 53.7236885,14.6938689 L53.7236885,10.4754714 L41.6454746,10.4754714 L41.6454746,15.4118979 C41.9019004,15.1811222 42.0899546,15.0229768 42.2096374,14.9374955 C42.5002544,14.7238093 42.7866093,14.5784923 43.0687041,14.5015446 C43.6499485,14.3391493 44.1927403,14.2579404 44.697083,14.2579293 C46.0048987,14.2579404 47.0862088,14.7152533 47.9410191,15.6298678 C48.7957921,16.5359599 49.223187,17.6514659 49.2232073,18.9763858 C49.223187,20.0363284 48.8470797,21.0364354 48.094882,21.9767065 C47.5307013,22.7032802 46.6459911,23.3101825 45.4407519,23.7974131 L44.5047541,21.9767065 C45.7185428,21.4125506 46.5305943,20.9680549 46.9409121,20.6432307 C47.846974,19.9337578 48.3000133,19.1558931 48.3000313,18.3096479 C48.3000133,17.548884 47.9452745,16.8607841 47.2358152,16.2453259 C46.7827578,15.8606773 46.077555,15.7153602 45.1202045,15.809375 C44.6671494,15.8520986 44.1115359,16.1513112 43.4533596,16.7069112 C42.8037044,17.2539888 42.2010768,17.9249992 41.6454746,18.7199421 L41.6454746,27.0926289 L39.5170423,24.9385534 L39.5170423,21.2073866 C39.1494719,21.6176921 38.60668,21.9724341 37.8886635,22.2716016 C37.1706301,22.5622356 36.525263,22.7075526 35.9525589,22.7075526 C34.7131057,22.7075526 33.6531641,22.2844301 32.772732,21.4381849 C31.9008425,20.591951 31.4648984,19.5490978 31.4649006,18.3096479 C31.4648984,17.0445637 31.8794727,16.0017218 32.7086228,15.1811109 C33.5377673,14.3519665 34.5848871,13.9373999 35.8499837,13.9373887 C37.4569849,13.9373999 38.6793374,14.6212273 39.5170423,15.9888822 L39.5170423,10.4754714 L27.6183346,10.4754714 L27.6183346,27.0926289 L25.4899023,24.9641989 L25.4899023,10.4754714 L21.0407089,10.4754714 L21.0407089,27.0926289 L18.7584137,24.8103372 L18.7584137,20.2072797 C18.1173088,20.6346859 17.3821881,21.0107898 16.5530494,21.3356141 C15.6042222,21.7031734 14.8092669,21.8698635 14.1681801,21.835662 C12.8688911,21.7672363 11.7448404,21.1390174 10.7960244,19.9508473 C10.0438052,19.0020313 9.66769676,17.882253 9.66769901,16.5915121 C9.8130115,15.9247854 10.0609015,15.390536 10.4113678,14.9887752 C11.7704835,13.7066017 13.2749163,13.0954271 14.9246705,13.1552516 C16.5658631,13.2065426 17.8437756,13.9929632 18.7584137,15.5144799 L18.7584137,10.4754714 L5.82113423,10.4754714 L5.82113423,27.0926289 L3.69270192,24.9641989 L3.69270192,10.4754714 L1.79506334,10.4754714 L0,8.70605585 L3.71834516,8.70605585 C2.863553,7.44952774 2.43615691,5.91945514 2.43615691,4.11582676 C2.43615691,2.82510841 2.93620923,1.80362837 3.93631728,1.05138664 C4.74836769,0.444518263 5.8425006,0.141033347 7.21871935,0.141033347 C8.60347609,0.141033347 9.79163611,0.294928901 10.7832028,0.602629824 C11.9371625,0.953122098 13.0868564,1.56856903 14.2322894,2.44898191 C16.1747696,3.94773394 17.6784925,6.03286704 18.7434625,8.70436004 L25.5155468,8.70605585 C24.6607534,7.44952774 24.2333573,5.91945514 24.2333584,4.11582676 C24.2333573,2.82510841 24.7334108,1.80362837 25.7335188,1.05138664 C26.5455682,0.444518263 27.639701,0.141033347 29.0159197,0.141033347 C30.4006765,0.141033347 31.5888366,0.294928901 32.5804032,0.602629824 C33.7343629,0.953122098 34.8840569,1.56856903 36.0294898,2.44898191 C37.97197,3.94773394 39.4756929,6.03286704 40.5406629,8.70436004 L68.6611807,8.70605585 C68.2508785,7.50081874 67.6610726,6.33403298 66.8917605,5.20567602 C65.8831067,3.72691696 64.9214656,2.9875149 64.0068367,2.98749234 C63.1093083,2.9875149 62.3955574,3.35508538 61.8655828,4.09018127 C61.3869046,4.74838573 61.1475628,5.54335118 61.1475572,6.47504378 C61.1475628,7.05632302 61.3313424,7.74016172 61.6988982,8.52654861 L59.6217535,8.52654861 C59.3311309,7.75725121 59.1858093,6.96229703 59.1858093,6.14167481 C59.1858093,4.61162476 59.5020888,3.40209274 60.1346286,2.51309002 C60.8697549,1.49590491 61.972436,0.987278524 63.4426739,0.987278524 C65.0154928,0.987278524 66.3917071,1.92329987 67.5713201,3.79527491 C68.1782211,4.76121411 68.9090672,6.39814109 69.7638617,8.70605585 L74.9567239,8.70605585 C74.1019307,7.44952774 73.6745356,5.91945514 73.6745356,4.11582676 C73.6745356,2.79091817 74.25152,1.74807627 75.4054897,0.987278524 C76.4055933,0.329119144 77.606575,0 79.0084392,0 C81.6668338,0 84.137181,0.880457965 86.4194874,2.64130626 C88.9829851,4.62222387 90.8049638,6.64363665 91.8854278,8.70555499 L118.243402,8.70605585 Z M36.9270226,15.7709123 C35.679019,15.7709123 34.7131057,16.0145389 34.0292771,16.5017584 C33.0890015,17.1685077 32.5761274,18.0574878 32.4906507,19.1687102 C32.4393598,19.8696496 32.6316886,20.4338055 33.0676362,20.8612006 C33.4266438,21.2031255 33.9224239,21.3740768 34.5549738,21.3740768 C35.461048,21.3740768 36.4996186,20.9124915 37.6706914,19.9893098 C38.901583,19.0148597 39.5170423,18.0831332 39.5170423,17.1941418 L39.5170423,16.7710193 C38.7648164,16.1042926 37.9014772,15.7709123 36.9270226,15.7709123 Z M106.870337,10.4754714 L101.61337,10.4754714 C102.263007,11.3302839 102.58782,12.3603087 102.587832,13.5655457 C102.58782,14.7708167 102.147608,15.8393041 101.267173,16.7710193 C100.779942,17.2839068 100.343991,17.6429212 99.9593426,17.8480627 C99.6858094,17.9933797 99.2926046,18.1344243 98.7797284,18.271174 C99.1814779,19.5277359 100.036268,20.3483355 101.344109,20.7329843 C101.822784,20.826999 102.130508,20.8740176 102.26728,20.8740176 C103.891378,20.8740176 105.229127,19.873922 106.280536,17.8736969 C106.673729,17.1214889 106.870337,16.2624267 106.870337,15.2964988 L106.870337,10.4754714 Z M15.9504218,15.2195735 C14.4288849,15.2195735 13.0783151,15.8179422 11.8987066,17.0146346 C11.3259924,17.5959026 11.0396409,18.1899877 11.0396409,18.7968785 C11.0396409,19.6003888 11.6935527,20.0021382 13.0013887,20.0021382 C14.6425825,20.0021382 16.1341936,19.3097548 17.4762255,17.9249879 C18.1515003,17.2326158 18.4891539,16.6214412 18.4891539,16.0914642 C18.2156106,15.5102075 17.3693666,15.2195735 15.9504218,15.2195735 Z M61.673255,10.4754714 L55.6597919,10.4754714 L55.6597919,15.7965579 C55.6597919,16.5316875 55.8606644,17.1984255 56.2624206,17.7967717 C56.7240035,18.4806103 57.3009878,18.8225241 57.9933747,18.8225241 C58.7370367,18.8225241 59.3866784,18.6173826 59.9423008,18.2070659 C60.1303461,18.0874056 60.4722632,17.7882269 60.9680511,17.3095409 C61.1646444,17.0872988 61.3997116,16.7069224 61.673255,16.1683894 L61.673255,10.4754714 Z M76.5851039,2.846459 C75.6191861,3.47902924 75.1362312,4.3680094 75.1362312,5.51341077 C75.1362312,6.92383442 75.5508022,7.98804945 76.3799534,8.70605585 L91.2006391,8.70535128 L90.9983365,8.4148707 C89.7079416,6.61406405 88.2500435,5.1810494 86.6246368,4.11582676 C84.7440831,2.88494416 82.568639,2.20538911 80.0982986,2.07713905 C78.6707911,2.00025891 77.4997262,2.25666883 76.5851039,2.846459 Z M30.2211772,2.00021382 C28.998819,2.00021382 27.9901651,2.27376959 27.1952132,2.8208135 C26.1951029,3.50466347 25.6950529,4.40219964 25.6950529,5.51341077 C25.6950529,6.92383442 26.1096239,7.98804945 26.9387751,8.70605585 L39.8619154,8.7073153 C39.7236759,8.44888203 39.5275127,8.05525554 39.2734259,7.52644169 C38.9571374,6.79989056 38.3545098,6.00920876 37.4655409,5.15439628 C36.337202,4.06883068 35.234521,3.29524963 34.1574944,2.83363061 C32.858202,2.27804196 31.5460971,2.00021382 30.2211772,2.00021382 Z M8.42397675,2.00021382 C7.2016186,2.00021382 6.19296468,2.27376959 5.39801277,2.8208135 C4.39790248,3.50466347 3.8978524,4.40219964 3.8978524,5.51341077 C3.8978524,6.92383442 4.31242348,7.98804945 5.14157466,8.70605585 L18.0647145,8.7073153 C17.9264748,8.44888203 17.7303122,8.05525554 17.4762255,7.52644169 C17.1599369,6.79989056 16.5573093,6.00920876 15.6683394,5.15439628 C14.5400015,4.06883068 13.4373206,3.29524963 12.360294,2.83363061 C11.0610005,2.27804196 9.74889661,2.00021382 8.42397675,2.00021382 Z" id="wikipedia-wordmark-hi" fill="#000000" fill-rule="nonzero"></path>
    </g>
</svg>

<svg xmlns="http://www.w3.org/2000/svg" width="120" height="28"><path fill="#000" fill-rule="nonzero" d="m118.243 8.706 1.757 1.77h-4.385v16.617l-2.103-2.129V10.475h-4.5v16.618l-2.09-2.116v-4.654c-1.035 1.188-2.36 1.782-3.975 1.782-1.992 0-3.513-.76-4.565-2.282-.684-.992-1.025-2.12-1.025-3.385.769 0 1.457-.197 2.064-.59.675-.436 1.073-1.013 1.192-1.731.052-.171.077-.466.077-.885 0-1.248-.47-2.167-1.41-2.757h-7.09v5.59l-6.001-.025c-1.616-.009-2.424.376-2.424 1.154 0 .462.129.855.385 1.18.274.35.637.525 1.09.525.359 0 .893-.055 1.603-.166.71-.12 1.243-.18 1.602-.18 1.231 0 2.287.522 3.167 1.564.847.992 1.27 2.116 1.27 3.373 0 1-.5 1.867-1.5 2.602-.915.676-1.894 1.013-2.937 1.013-1.94 0-3.778-.88-5.513-2.64-1.171-1.19-2.39-2.911-3.654-5.168l.782-.449c.82 1.556 1.816 2.894 2.987 4.013 1.48 1.42 2.924 2.129 4.334 2.129.932 0 1.774-.304 2.526-.91.812-.642 1.218-1.415 1.218-2.321 0-.376-.128-.697-.385-.962a1.254 1.254 0 0 0-.936-.397c-.384 0-.936.15-1.654.448-.709.291-1.252.436-1.628.436-.974 0-1.833-.504-2.577-1.513-.23-.299-.744-1.218-1.539-2.756-.316-.607-.474-1.099-.474-1.475 0-.726.389-1.21 1.167-1.449.436-.137 1.124-.205 2.064-.205h5.116v-3.41h-13.22v16.617l-2.128-2.116V10.475h-4.488v16.592l-2.128-2.128V10.475h-4.436v16.618l-2.206-2.219V19.58c-.7.419-1.744.628-3.128.628-1.36-.136-2.505-.752-3.437-1.846-.923-1.069-1.384-2.29-1.384-3.667v-4.219H41.645v4.937c.257-.23.445-.389.565-.475.29-.213.577-.359.859-.435a6.071 6.071 0 0 1 1.628-.244c1.308 0 2.39.457 3.244 1.372.855.906 1.282 2.021 1.282 3.346 0 1.06-.376 2.06-1.128 3-.564.727-1.449 1.334-2.654 1.821l-.936-1.82c1.214-.564 2.026-1.009 2.436-1.334.906-.71 1.359-1.487 1.359-2.333 0-.761-.355-1.45-1.064-2.065-.453-.384-1.158-.53-2.116-.436-.453.043-1.008.342-1.667.898a10.39 10.39 0 0 0-1.808 2.013v8.373l-2.128-2.154v-3.732c-.368.41-.91.765-1.628 1.065-.718.29-1.364.436-1.936.436-1.24 0-2.3-.424-3.18-1.27-.872-.846-1.308-1.889-1.308-3.128 0-1.265.414-2.308 1.244-3.129.829-.829 1.876-1.244 3.141-1.244 1.607 0 2.83.684 3.667 2.052v-5.514H27.618v16.618l-2.128-2.129V10.475h-4.45v16.618l-2.282-2.283v-4.603c-.64.428-1.376.804-2.205 1.129-.949.367-1.744.534-2.385.5-1.3-.069-2.423-.697-3.372-1.885-.752-.949-1.128-2.069-1.128-3.36.145-.666.393-1.2.743-1.602 1.36-1.282 2.864-1.894 4.514-1.834 1.64.052 2.919.838 3.833 2.36v-5.04H5.821v16.618l-2.128-2.129V10.475H1.795L0 8.706h3.718C2.864 7.45 2.436 5.92 2.436 4.116c0-1.29.5-2.312 1.5-3.065.812-.606 1.907-.91 3.283-.91 1.384 0 2.573.154 3.564.462 1.154.35 2.304.966 3.45 1.846 1.942 1.499 3.445 3.584 4.51 6.255l6.773.002c-.855-1.256-1.283-2.787-1.283-4.59 0-1.29.5-2.312 1.5-3.065.813-.606 1.907-.91 3.283-.91 1.385 0 2.573.154 3.564.462 1.154.35 2.304.966 3.45 1.846 1.942 1.499 3.446 3.584 4.51 6.255l28.121.002c-.41-1.205-1-2.372-1.77-3.5-1.008-1.48-1.97-2.218-2.884-2.219-.898 0-1.611.368-2.141 1.103-.48.658-.718 1.453-.718 2.385 0 .581.183 1.265.55 2.052h-2.076a6.694 6.694 0 0 1-.436-2.385c0-1.53.316-2.74.949-3.629.735-1.017 1.837-1.526 3.308-1.526 1.572 0 2.949.936 4.128 2.808.607.966 1.338 2.603 2.193 4.911h5.193c-.855-1.256-1.282-2.787-1.282-4.59 0-1.325.577-2.368 1.73-3.129C76.405.33 77.607 0 79.008 0c2.659 0 5.13.88 7.411 2.641 2.564 1.981 4.386 4.003 5.466 6.065h26.358Zm-81.316 7.065c-1.248 0-2.214.244-2.898.73-.94.668-1.453 1.556-1.538 2.668-.052.7.14 1.265.577 1.692.359.342.854.513 1.487.513.906 0 1.945-.462 3.116-1.385 1.23-.974 1.846-1.906 1.846-2.795v-.423c-.752-.667-1.616-1-2.59-1Zm69.943-5.296h-5.257c.65.855.975 1.885.975 3.09 0 1.206-.44 2.274-1.32 3.206-.488.513-.924.872-1.309 1.077-.273.145-.666.286-1.18.423.402 1.257 1.257 2.077 2.565 2.462.479.094.787.141.923.141 1.624 0 2.962-1 4.014-3 .393-.753.59-1.612.59-2.578v-4.82ZM15.95 15.22c-1.521 0-2.872.598-4.051 1.795-.573.58-.86 1.175-.86 1.782 0 .803.655 1.205 1.962 1.205 1.642 0 3.133-.692 4.475-2.077.676-.692 1.013-1.304 1.013-1.834-.273-.58-1.12-.871-2.539-.871Zm45.723-4.745H55.66v5.322c0 .735.2 1.401.602 2 .462.684 1.039 1.026 1.731 1.026.744 0 1.394-.206 1.95-.616.187-.12.53-.419 1.025-.897.197-.223.432-.603.705-1.142v-5.693Zm14.912-7.629c-.966.633-1.449 1.522-1.449 2.667 0 1.41.415 2.475 1.244 3.193H91.2l-.202-.291c-1.29-1.8-2.748-3.234-4.373-4.3-1.88-1.23-4.056-1.91-6.527-2.038-1.427-.077-2.598.18-3.513.77ZM30.221 2c-1.222 0-2.23.274-3.026.82-1 .685-1.5 1.582-1.5 2.693 0 1.41.415 2.475 1.244 3.193l12.923.001a33.355 33.355 0 0 1-.589-1.18c-.316-.727-.918-1.518-1.807-2.373-1.129-1.085-2.231-1.859-3.309-2.32C32.858 2.278 31.547 2 30.221 2ZM8.424 2c-1.222 0-2.231.274-3.026.82-1 .685-1.5 1.582-1.5 2.693 0 1.41.414 2.475 1.244 3.193l12.923.001a33.355 33.355 0 0 1-.589-1.18c-.316-.727-.919-1.518-1.808-2.373-1.128-1.085-2.23-1.859-3.308-2.32C11.061 2.278 9.75 2 8.424 2Z"/></svg>
